X:1
T: For my Scottish Friend
C:John Burry
R:Strathspey
Q: 128
K:G
M:4/4
L:1/16
|:B3G A3B GB3-B3d|e3d e3f g4-g3d|e3f g3e dB3-B3B|c2B4AG A4 G3A|
B3G A3B GB3-B3d|e3d e3f g4-g3d|e3f g3e dB3 c3A|1G4 G3G G4-G3A:|2G4 G3G G4-G3d|
|:e4 e3f g3f e3d|f4 B3B B4-B3d|e4 e3f g3f e3d|f4 e3e e4-e3d|
e4 e3f g3f e3d|f3e fg3 a4 g3f|g3f g3d c3B cA3|1B4 G3G G4-G3d:|2B4 G3G G4-G2BA|
|:G3A B3G A3B c3A|B3A GB3 d4-d3d|e3f g3f e3d c3B|c2B4AG A8|
G3A B3G A3B c3A|B3A GB3 d4-d3d|e3f g3f e3d c3B|1A2 G4 AB G4-G2BA:|2A2 G4 AB G4-G3d|
|:g4 g3f a3g g3d|e3d ((3e2f2g2) d4-d3d|g3f e3d f3d ((3e2f2g2) |f2 e4 fg a4-a3a|
g4 g3a b3g ((3g2d2g2) |e3d ((3e2f2g2) d4-d3e1/2f1/2|g3d c3B c3B A3G|1A2 G4 AB G4-G3d:|2A2 G4 AB G4-G4||
